Numix/64/emotes/face-plain.svg

<?xml version="1.0" encoding="UTF-8" standalone="no"?>
<svg
   xmlns:dc="http://purl.org/dc/elements/1.1/"
   xmlns:cc="http://creativecommons.org/ns#"
   xmlns:rdf="http://www.w3.org/1999/02/22-rdf-syntax-ns#"
   xmlns:svg="http://www.w3.org/2000/svg"
   xmlns="http://www.w3.org/2000/svg"
   xmlns:sodipodi="http://sodipodi.sourceforge.net/DTD/sodipodi-0.dtd"
   xmlns:inkscape="http://www.inkscape.org/namespaces/inkscape"
   width="64px"
   height="64px"
   viewBox="0 0 48 48"
   version="1.1"
   id="svg382"
   inkscape:version="0.91 r"
   sodipodi:docname="face-plain.svg">
  <metadata
     id="metadata397">
    <rdf:RDF>
      <cc:Work
         rdf:about="">
        <dc:format>image/svg+xml</dc:format>
        <dc:type
           rdf:resource="http://purl.org/dc/dcmitype/StillImage" />
      </cc:Work>
    </rdf:RDF>
  </metadata>
  <defs
     id="defs395" />
  <sodipodi:namedview
     pagecolor="#ffffff"
     bordercolor="#666666"
     borderopacity="1"
     objecttolerance="10"
     gridtolerance="10"
     guidetolerance="10"
     inkscape:pageopacity="0"
     inkscape:pageshadow="2"
     inkscape:window-width="640"
     inkscape:window-height="480"
     id="namedview393" />
  <g
     id="surface1">
    <path
       style=" stroke:none;fill-rule:nonzero;fill:rgb(100%,85.490196%,36.862745%);fill-opacity:1;"
       d="M 42 24 C 42 32.5625 33.941406 39.5 24 39.5 C 14.058594 39.5 6 32.5625 6 24 C 6 15.441406 14.058594 8.5 24 8.5 C 33.941406 8.5 42 15.441406 42 24 Z M 42 24 "
       id="path385" />
    <path
       style=" stroke:none;fill-rule:nonzero;fill:rgb(39.607843%,39.607843%,39.607843%);fill-opacity:1;"
       d="M 20.5 31 L 27.5 31 C 27.777344 31 28 31.222656 28 31.5 L 28 32.5 C 28 32.777344 27.777344 33 27.5 33 L 20.5 33 C 20.222656 33 20 32.777344 20 32.5 L 20 31.5 C 20 31.222656 20.222656 31 20.5 31 Z M 20.5 31 "
       id="path387" />
    <path
       style=" stroke:none;fill-rule:nonzero;fill:rgb(39.607843%,39.607843%,39.607843%);fill-opacity:1;"
       d="M 14.5 21 L 20.5 21 C 20.777344 21 21 21.222656 21 21.5 C 21 21.777344 20.777344 22 20.5 22 L 14.5 22 C 14.222656 22 14 21.777344 14 21.5 C 14 21.222656 14.222656 21 14.5 21 Z M 14.5 21 "
       id="path389" />
    <path
       style=" stroke:none;fill-rule:nonzero;fill:rgb(39.607843%,39.607843%,39.607843%);fill-opacity:1;"
       d="M 27.5 21 L 33.5 21 C 33.777344 21 34 21.222656 34 21.5 C 34 21.777344 33.777344 22 33.5 22 L 27.5 22 C 27.222656 22 27 21.777344 27 21.5 C 27 21.222656 27.222656 21 27.5 21 Z M 27.5 21 "
       id="path391" />
  </g>
</svg>

<svg xmlns="http://www.w3.org/2000/svg" width="64" height="64" viewBox="0 0 48 48">
 <g>
  <path d="m 42 24 c 0 8.563 -8.06 15.5 -18 15.5 c -9.941 0 -18 -6.938 -18 -15.5 c 0 -8.559 8.06 -15.5 18 -15.5 c 9.941 0 18 6.941 18 15.5 m 0 0" style="fill:#ffd95d;fill-opacity:1;stroke:none;fill-rule:nonzero"/>
  <path d="m 20.5 31 l 7 0 c 0.277 0 0.5 0.223 0.5 0.5 l 0 1 c 0 0.277 -0.223 0.5 -0.5 0.5 l -7 0 c -0.277 0 -0.5 -0.223 -0.5 -0.5 l 0 -1 c 0 -0.277 0.223 -0.5 0.5 -0.5 m 0 0" style="fill:#646464;fill-opacity:1;stroke:none;fill-rule:nonzero"/>
  <path d="m 14.5 21 l 6 0 c 0.277 0 0.5 0.223 0.5 0.5 c 0 0.277 -0.223 0.5 -0.5 0.5 l -6 0 c -0.277 0 -0.5 -0.223 -0.5 -0.5 c 0 -0.277 0.223 -0.5 0.5 -0.5 m 0 0" style="fill:#646464;fill-opacity:1;stroke:none;fill-rule:nonzero"/>
  <path d="m 27.5 21 l 6 0 c 0.277 0 0.5 0.223 0.5 0.5 c 0 0.277 -0.223 0.5 -0.5 0.5 l -6 0 c -0.277 0 -0.5 -0.223 -0.5 -0.5 c 0 -0.277 0.223 -0.5 0.5 -0.5 m 0 0" style="fill:#646464;fill-opacity:1;stroke:none;fill-rule:nonzero"/>
 </g>
</svg>
